Front-end-Projects/github_page/Images/Icon=Linkedin.svg

<svg width="47" height="46" viewBox="0 0 47 46" fill="none" xmlns="http://www.w3.org/2000/svg">
<path d="M23.5 0C10.7983 0 0.5 10.2983 0.5 23C0.5 35.7017 10.7983 46 23.5 46C36.2017 46 46.5 35.7017 46.5 23C46.5 10.2983 36.2017 0 23.5 0ZM19.6667 30.6667H15.8333V19.1667H19.6667V30.6667ZM17.75 17.4589C16.5866 17.4589 15.6417 16.5082 15.6417 15.3333C15.6417 14.1603 16.5847 13.2077 17.75 13.2077C18.9153 13.2077 19.8583 14.1603 19.8583 15.3333C19.8583 16.5082 18.9134 17.4589 17.75 17.4589ZM33.0833 30.6667H29.2538V25.1831C29.2538 21.5778 25.4167 21.8826 25.4167 25.1831V30.6667H21.5833V19.1667H25.4167V21.2616C27.088 18.1643 33.0833 17.9342 33.0833 24.2286V30.6667Z" fill="white"/>
</svg>

<svg xmlns="http://www.w3.org/2000/svg" width="47" height="46" fill="none"><path fill="#fff" d="M23.5 0C10.798 0 .5 10.298.5 23s10.298 23 23 23 23-10.298 23-23-10.298-23-23-23Zm-3.833 30.667h-3.834v-11.5h3.834v11.5ZM17.75 17.459a2.117 2.117 0 0 1-2.108-2.126c0-1.173.943-2.125 2.108-2.125s2.108.952 2.108 2.125a2.117 2.117 0 0 1-2.108 2.126Zm15.333 13.208h-3.83v-5.484c0-3.605-3.836-3.3-3.836 0v5.484h-3.834v-11.5h3.834v2.095c1.671-3.098 7.666-3.328 7.666 2.967v6.438Z"/></svg>
